X: 23717
T: Lisnagun, The
R: jig
M: 6/8
K: Amixolydian
|:AFE A3|Bce c3|Bce cBA|BAF AFE|
AFE A3|Bce c3|Bce cBA|BAG A3:|
|:e3 cBA|Bce c3|Bce cBA|BAF AFE|
e3 cBA|Bce c3|Bce cBA|BAG A3:|

